images/pinterest.svg

<?xml version="1.0" encoding="UTF-8" standalone="no"?>
<svg width="50px" height="50px" viewBox="0 0 50 50" version="1.1" xmlns="http://www.w3.org/2000/svg" xmlns:xlink="http://www.w3.org/1999/xlink">
    <!-- Generator: Sketch 3.6.1 (26313) - http://www.bohemiancoding.com/sketch -->
    <title>noun_137198_cc</title>
    <desc>Created with Sketch.</desc>
    <defs></defs>
    <g id="Welcome" stroke="none" stroke-width="1" fill="none" fill-rule="evenodd">
        <g id="Full-Width-Page" transform="translate(-408.000000, -281.000000)" fill="#C5C5C5">
            <g id="noun_137198_cc" transform="translate(408.000000, 281.000000)">
                <g id="Group">
                    <path d="M20.5487805,40.3658537 L20.5487805,12.3780488 C21.402439,12.3170732 22.3780488,12.2560976 23.1097561,12.2560976 C30.6707317,12.2560976 34.4512195,16.8292683 34.4512195,21.402439 C34.4512195,26.0365854 30.6707317,30.6097561 23.0487805,30.6097561 C22.5609756,30.6097561 22.0731707,30.5487805 21.5243902,30.5487805 L21.5243902,40.304878 L20.5487805,40.304878 L20.5487805,40.3658537 Z M21.5243902,13.3536585 L21.5243902,29.5731707 C22.0731707,29.6341463 22.6219512,29.6341463 23.0487805,29.6341463 C30,29.6341463 33.4146341,25.5487805 33.4146341,21.4634146 C33.4146341,17.3780488 29.9390244,13.2926829 23.0487805,13.2926829 C22.6219512,13.2926829 22.1341463,13.2926829 21.5243902,13.3536585 L21.5243902,13.3536585 Z M25,49.8170732 C11.2804878,49.8170732 0.182926829,38.7195122 0.182926829,25 C0.182926829,11.2804878 11.2804878,0.12195122 25,0.12195122 C38.7195122,0.12195122 49.8780488,11.2804878 49.8780488,25 C49.8780488,38.7195122 38.7195122,49.8170732 25,49.8170732 L25,49.8170732 Z M25,1.03658537 C11.8292683,1.03658537 1.03658537,11.7682927 1.03658537,25 C1.03658537,38.2317073 11.8292683,48.902439 25,48.902439 C38.1707317,48.902439 48.9634146,38.1707317 48.9634146,25 C48.9634146,11.8292683 38.1707317,1.03658537 25,1.03658537 L25,1.03658537 Z" id="Shape"></path>
                </g>
            </g>
        </g>
    </g>
</svg>

<svg width="50" height="50" viewBox="0 0 50 50" xmlns="http://www.w3.org/2000/svg"><title>noun_137198_cc</title><path d="M20.55 40.366V12.378c.852-.06 1.828-.122 2.56-.122 7.56 0 11.34 4.573 11.34 9.146 0 4.635-3.78 9.208-11.4 9.208-.49 0-.977-.06-1.526-.06v9.755h-.975v.06zm.974-27.012v16.22c.55.06 1.098.06 1.525.06 6.95 0 10.36-4.085 10.36-8.17 0-4.086-3.475-8.17-10.365-8.17-.428 0-.916 0-1.526.06zM25 49.817C11.28 49.817.183 38.72.183 25S11.28.122 25 .122 49.878 11.28 49.878 25 38.72 49.817 25 49.817zm0-48.78C11.83 1.037 1.037 11.767 1.037 25 1.037 38.232 11.83 48.902 25 48.902c13.17 0 23.963-10.73 23.963-23.902C48.963 11.83 38.17 1.037 25 1.037z" fill="#C5C5C5" fill-rule="evenodd"/></svg>
